brandFactory_export/1.Light/Oferta online_1Light.svg

<?xml version="1.0" encoding="UTF-8"?>
<svg width="24px" height="24px" viewBox="0 0 24 24" version="1.1" xmlns="http://www.w3.org/2000/svg" xmlns:xlink="http://www.w3.org/1999/xlink">
    <title>1.Light/Oferta online_1Light</title>
    <g id="Symbols" stroke="none" stroke-width="1" fill="none" fill-rule="evenodd">
        <g id="1.Light/Oferta-online_1Light" fill="#5CB615" fill-rule="nonzero">
            <path d="M2.35294118,0.00336134454 C2.53781513,0.00336134454 2.68907563,0.154621849 2.68907563,0.339495798 C2.68907563,0.702521008 2.82016807,1.22352941 3.43865546,1.6302521 C3.97310924,1.98319328 4.72941176,2.16806723 5.6302521,2.16806723 L7.9697479,2.16806723 C9.15630252,2.16806723 9.72436975,2.80336134 9.98991597,3.33781513 C10.1613445,3.6907563 10.2588235,4.07731092 10.2722689,4.47058824 L10.2730189,5.2563541 C14.2963828,5.38584187 16.4201681,7.63226891 16.4201681,11.7714286 L16.4208556,13.8741324 C16.6344945,14.0092763 16.7811193,14.2760772 16.9142857,14.5210084 C16.9781513,14.6352941 17.0756303,14.8168067 17.1428571,14.887395 C17.2369748,14.8605042 17.4218487,14.7495798 17.5394958,14.6789916 C17.8689076,14.4773109 18.2453782,14.2521008 18.5781513,14.4436975 C18.9109244,14.6352941 18.9042017,15.0789916 18.8941176,15.4689076 C18.8907563,15.6033613 18.887395,15.8184874 18.9109244,15.9092437 C19.0016807,15.9327731 19.2168067,15.9260504 19.3512605,15.9260504 C19.7411765,15.9159664 20.1848739,15.9092437 20.3764706,16.2420168 C20.5680672,16.5747899 20.3428571,16.9478992 20.1411765,17.2806723 C20.0705882,17.3983193 19.9563025,17.5831933 19.9327731,17.6773109 C20,17.7411765 20.1848739,17.8420168 20.2957983,17.9058824 C20.6420168,18.097479 21.0319328,18.3092437 21.0319328,18.702521 C21.0319328,19.0957983 20.6386555,19.3109244 20.2957983,19.4991597 C20.1815126,19.5630252 20,19.6605042 19.9327731,19.7277311 C19.9596639,19.8218487 20.0705882,20.0067227 20.1411765,20.1243697 C20.3428571,20.4537815 20.5680672,20.8302521 20.3764706,21.1630252 C20.1848739,21.4957983 19.7411765,21.4890756 19.3512605,21.4789916 C19.2168067,21.4756303 19.0016807,21.4722689 18.9109244,21.4957983 C18.887395,21.5865546 18.8941176,21.8016807 18.8941176,21.9361345 C18.9042017,22.3260504 18.9109244,22.7697479 18.5781513,22.9613445 C18.2453782,23.1529412 17.8722689,22.9277311 17.5394958,22.7260504 C17.4218487,22.6554622 17.2369748,22.5411765 17.1428571,22.5176471 C17.0789916,22.5848739 16.9781513,22.7697479 16.9142857,22.8806723 C16.7260504,23.2268908 16.5109244,23.6168067 16.1176471,23.6168067 C15.7243697,23.6168067 15.5092437,23.2235294 15.3210084,22.8806723 C15.2571429,22.7663866 15.1563025,22.5848739 15.092437,22.5176471 C14.9983193,22.5445378 14.8134454,22.6554622 14.6957983,22.7260504 C14.3630252,22.9277311 13.989916,23.1529412 13.6571429,22.9613445 C13.6038138,22.9306399 13.5592038,22.8934609 13.5219293,22.8510662 C12.5491993,23.3597431 11.3303579,23.6168067 9.89915966,23.6168067 C5.63361345,23.6168067 3.37815126,21.3613445 3.37815126,17.0957983 L3.3767613,13.0834418 C3.37135336,13.0517509 3.37049127,13.018649 3.37478992,12.9848739 L3.37780672,12.9673613 L3.37815126,11.7714286 C3.37815126,7.60822799 5.52667877,5.35981048 9.59559771,5.25431213 L9.59663866,4.47058824 C9.58319328,4.17478992 9.5092437,3.88571429 9.37815126,3.62016807 C9.11260504,3.10252101 8.63865546,2.84033613 7.96638655,2.84033613 L5.6302521,2.84033613 C3.46890756,2.84033613 2.01680672,1.83529412 2.01680672,0.339495798 C2.01680672,0.154621849 2.16806723,0.00336134454 2.35294118,0.00336134454 Z M13.3411765,21.9361345 C13.3445378,21.8016807 13.3478992,21.5865546 13.3243697,21.4957983 C13.2336134,21.4722689 13.0184874,21.4789916 12.8840336,21.4789916 C12.4941176,21.4890756 12.0504202,21.4957983 11.8588235,21.1630252 C11.6672269,20.8302521 11.892437,20.4571429 12.0941176,20.1243697 C12.1647059,20.0067227 12.2789916,19.8218487 12.302521,19.7277311 C12.2352941,19.6638655 12.0504202,19.5630252 11.9361345,19.4991597 C11.589916,19.307563 11.2,19.0957983 11.2,18.702521 C11.2,18.3092437 11.589916,18.0941176 11.9361345,17.9058824 C12.0504202,17.8420168 12.2319328,17.7445378 12.302521,17.6773109 C12.2756303,17.5831933 12.1647059,17.3983193 12.0941176,17.2806723 C11.892437,16.9478992 11.6672269,16.5747899 11.8588235,16.2420168 C12.0504202,15.9092437 12.4941176,15.9159664 12.8840336,15.9260504 C13.0184874,15.9294118 13.2336134,15.9327731 13.3243697,15.9092437 C13.3478992,15.8184874 13.3411765,15.6033613 13.3411765,15.4689076 C13.3310924,15.0789916 13.3243697,14.6352941 13.6571429,14.4436975 C13.989916,14.2521008 14.3630252,14.4773109 14.6957983,14.6789916 C14.8134454,14.7495798 14.9983193,14.8638655 15.092437,14.887395 C15.1563025,14.8201681 15.2571429,14.6352941 15.3210084,14.5210084 C15.4398593,14.3024077 15.5694305,14.0663865 15.747796,13.9220906 L15.7478067,13.4093613 L15.2454027,13.4749443 C13.4717887,13.6844452 11.6854742,13.7877551 9.89915966,13.7848739 C7.94382403,13.7880277 5.9884884,13.6639441 4.04981043,13.4098469 L4.05042017,17.0957983 C4.05042017,19.0689076 4.56134454,20.5613445 5.5697479,21.5327731 C6.54117647,22.4705882 8,22.9445378 9.89915966,22.9445378 C11.287535,22.9445378 12.4412932,22.6913982 13.3397251,22.1880775 C13.3370721,22.1030127 13.3390495,22.0183772 13.3411765,21.9361345 Z M16.1176471,14.5109244 C16.0403361,14.6218487 15.9697479,14.7361345 15.9092437,14.8571429 C15.7411765,15.1630252 15.5697479,15.4756303 15.2705882,15.5563025 C14.9647059,15.6369748 14.6521008,15.4487395 14.3495798,15.2638655 C14.2420168,15.1966387 14.1344538,15.1361345 14.0201681,15.0789916 C14.010084,15.2067227 14.010084,15.3344538 14.0134454,15.4621849 C14.0201681,15.8151261 14.0302521,16.1781513 13.8084034,16.4 C13.5865546,16.6218487 13.2235294,16.6151261 12.8705882,16.605042 C12.7428571,16.5983193 12.6151261,16.6016807 12.487395,16.6117647 C12.5411765,16.7260504 12.605042,16.8336134 12.6722689,16.9411765 C12.8571429,17.2436975 13.0453782,17.5596639 12.9647059,17.8621849 C12.8840336,18.1579832 12.5714286,18.3327731 12.2655462,18.5008403 C12.1445378,18.5613445 12.0302521,18.6319328 11.9193277,18.7092437 C12.0302521,18.7865546 12.1445378,18.8571429 12.2655462,18.9176471 C12.5714286,19.0857143 12.8840336,19.2571429 12.9647059,19.5563025 C13.0453782,19.8621849 12.8571429,20.1747899 12.6722689,20.4773109 C12.605042,20.5848739 12.5445378,20.692437 12.487395,20.8067227 C12.6151261,20.8168067 12.7428571,20.8168067 12.8705882,20.8134454 C13.2235294,20.8067227 13.5865546,20.7966387 13.8084034,21.0184874 C14.0302521,21.2403361 14.0235294,21.6033613 14.0134454,21.9563025 C14.0067227,22.0840336 14.010084,22.2117647 14.0201681,22.3394958 C14.1344538,22.2857143 14.2420168,22.2218487 14.3495798,22.1546218 C14.6016807,21.9966387 14.8638655,21.8386555 15.1193277,21.8386555 C15.1697479,21.8386555 15.2201681,21.8453782 15.2705882,21.8588235 C15.5697479,21.9394958 15.7411765,22.2521008 15.9092437,22.5579832 C15.9697479,22.6756303 16.0403361,22.7932773 16.1176471,22.9042017 C16.194958,22.7932773 16.2655462,22.6789916 16.3260504,22.5579832 C16.4941176,22.2521008 16.6655462,21.9394958 16.9647059,21.8588235 C17.2705882,21.7781513 17.5831933,21.9663866 17.8857143,22.1512605 C17.9932773,22.2184874 18.1008403,22.2789916 18.2151261,22.3361345 C18.2252101,22.2084034 18.2252101,22.0806723 18.2218487,21.9529412 C18.2151261,21.6 18.205042,21.2369748 18.4268908,21.0151261 C18.6487395,20.7932773 19.0117647,20.8033613 19.3647059,20.810084 C19.492437,20.8168067 19.6201681,20.8134454 19.7478992,20.8033613 C19.6941176,20.6890756 19.6302521,20.5815126 19.5630252,20.4739496 C19.3781513,20.1714286 19.189916,19.8554622 19.2705882,19.5529412 C19.3512605,19.2571429 19.6638655,19.0823529 19.9697479,18.9142857 C20.0907563,18.8537815 20.205042,18.7831933 20.3159664,18.7058824 C20.205042,18.6285714 20.0907563,18.5579832 19.9697479,18.497479 C19.6638655,18.3294118 19.3512605,18.1579832 19.2705882,17.8588235 C19.189916,17.5529412 19.3781513,17.2403361 19.5630252,16.9378151 C19.6302521,16.8302521 19.6907563,16.7226891 19.7478992,16.6084034 C19.6201681,16.5983193 19.492437,16.5983193 19.3647059,16.6016807 C19.0117647,16.6084034 18.6487395,16.6184874 18.4268908,16.3966387 C18.205042,16.1747899 18.2151261,15.8117647 18.2218487,15.4588235 C18.2285714,15.3310924 18.2252101,15.2033613 18.2151261,15.0756303 C18.1008403,15.1294118 17.9932773,15.1932773 17.8857143,15.2605042 C17.5831933,15.4453782 17.2672269,15.6336134 16.9647059,15.5529412 C16.6655462,15.4722689 16.4941176,15.1596639 16.3260504,14.8537815 C16.2621849,14.7361345 16.194958,14.6184874 16.1176471,14.5109244 Z M17.9462185,16.3596639 C18.0907563,16.4739496 18.1176471,16.6857143 18.0033613,16.8302521 L14.7529412,20.9815126 C14.692437,21.0655462 14.594958,21.112605 14.4907563,21.112605 C14.3058824,21.112605 14.1546218,20.9613445 14.1546218,20.7764706 C14.1546218,20.702521 14.1781513,20.6285714 14.2252101,20.5714286 L17.4756303,16.4168067 C17.589916,16.2722689 17.8016807,16.2453782 17.9462185,16.3596639 Z M17.2336134,19.0386555 C17.8319328,19.0386555 18.2016807,19.4084034 18.2016807,20.0067227 C18.2016807,20.605042 17.8319328,20.9747899 17.2336134,20.9747899 C16.6386555,20.9747899 16.2655462,20.605042 16.2655462,20.0067227 C16.2655462,19.4084034 16.6352941,19.0386555 17.2336134,19.0386555 Z M17.2336134,19.7142857 C17.005042,19.7142857 16.9378151,19.7815126 16.9378151,20.010084 C16.9378151,20.2386555 17.005042,20.3058824 17.2336134,20.3058824 C17.4621849,20.3058824 17.5294118,20.2386555 17.5294118,20.010084 C17.5294118,19.7815126 17.4621849,19.7142857 17.2336134,19.7142857 Z M15.0016807,16.4235294 C15.6,16.4235294 15.9697479,16.7932773 15.9697479,17.3915966 C15.9697479,17.989916 15.5966387,18.3596639 15.0016807,18.3596639 C14.4067227,18.3596639 14.0336134,17.989916 14.0336134,17.3915966 C14.0336134,16.7932773 14.4033613,16.4235294 15.0016807,16.4235294 Z M15.0016807,17.0991597 C14.7731092,17.0991597 14.7058824,17.1663866 14.7058824,17.394958 C14.7058824,17.6235294 14.7731092,17.6907563 15.0016807,17.6907563 C15.2302521,17.6907563 15.297479,17.6235294 15.297479,17.394958 C15.297479,17.1663866 15.2268908,17.0991597 15.0016807,17.0991597 Z M9.89915966,5.92268908 C8,5.92268908 6.54117647,6.39663866 5.5697479,7.33445378 C4.56134454,8.30588235 4.05042017,9.79831933 4.05042017,11.7714286 L4.04980672,12.7323613 L4.63388294,12.8081535 C6.38086092,13.0155376 8.13877551,13.1188475 9.89915966,13.1159664 C11.8558142,13.1191688 13.8094178,12.991181 15.7483439,12.7349096 L15.7478992,11.7714286 C15.7478992,9.79831933 15.2369748,8.30588235 14.2285714,7.33445378 C13.2537815,6.39663866 11.7983193,5.92268908 9.89915966,5.92268908 Z M9.89915966,7.59327731 C10.0840336,7.59327731 10.2352941,7.74453782 10.2352941,7.92941176 L10.2352941,11.4823529 C10.2352941,11.6705882 10.0840336,11.8184874 9.89915966,11.8184874 C9.71428571,11.8184874 9.56302521,11.6672269 9.56302521,11.4823529 L9.56302521,7.92941176 C9.56302521,7.74453782 9.71428571,7.59327731 9.89915966,7.59327731 Z" id="Oferta-online_1Light"></path>
        </g>
    </g>
</svg>

<svg width="24" height="24" viewBox="0 0 24 24" xmlns="http://www.w3.org/2000/svg"><path d="M2.353.003c.185 0 .336.152.336.336 0 .364.131.885.75 1.291.534.353 1.29.538 2.191.538h2.34c1.186 0 1.754.635 2.02 1.17.171.353.269.74.282 1.133l.001.785c4.023.13 6.147 2.376 6.147 6.515v2.103c.214.135.361.402.494.647.064.114.162.296.229.366.094-.026.279-.137.396-.208.33-.202.706-.427 1.04-.235.332.191.325.635.315 1.025-.003.134-.007.35.017.44.09.024.306.017.44.017.39-.01.834-.017 1.025.316.192.333-.033.706-.235 1.039-.07.117-.185.302-.208.396.067.064.252.165.363.229.346.191.736.403.736.797 0 .393-.393.608-.736.796-.114.064-.296.162-.363.229.027.094.138.279.208.396.202.33.427.706.235 1.039-.191.333-.635.326-1.025.316-.134-.003-.35-.007-.44.017-.024.09-.017.306-.017.44.01.39.017.834-.316 1.025-.333.192-.706-.033-1.039-.235-.117-.07-.302-.185-.396-.208-.064.067-.165.252-.229.363-.188.346-.403.736-.796.736-.394 0-.609-.393-.797-.736-.064-.115-.165-.296-.229-.363-.094.027-.279.137-.396.208-.333.202-.706.427-1.039.235a.532.532 0 01-.135-.11c-.973.509-2.192.766-3.623.766-4.265 0-6.52-2.256-6.52-6.521l-.002-4.013a.334.334 0 01-.002-.098l.003-.018v-1.196c0-4.163 2.149-6.411 6.218-6.517v-.783a2.138 2.138 0 00-.218-.85c-.265-.518-.74-.78-1.412-.78H5.63C3.47 2.84 2.017 1.834 2.017.338c0-.184.151-.336.336-.336zM13.34 21.936c.004-.134.007-.35-.017-.44-.09-.024-.306-.017-.44-.017-.39.01-.834.017-1.025-.316-.192-.333.033-.706.235-1.039.07-.117.185-.302.209-.396-.068-.064-.253-.165-.367-.229-.346-.191-.736-.403-.736-.796 0-.394.39-.609.736-.797.114-.064.296-.161.367-.229-.027-.094-.138-.279-.209-.396-.202-.333-.427-.706-.235-1.039.191-.333.635-.326 1.025-.316.134.003.35.007.44-.017.024-.09.017-.306.017-.44-.01-.39-.017-.834.316-1.025.333-.192.706.033 1.039.235.117.07.302.185.396.208.064-.067.165-.252.229-.366.119-.219.248-.455.427-.599v-.513l-.503.066a44.97 44.97 0 01-5.346.31c-1.955.003-3.91-.121-5.85-.375l.001 3.686c0 1.973.511 3.465 1.52 4.437.971.938 2.43 1.412 4.33 1.412 1.388 0 2.541-.254 3.44-.757-.003-.085-.001-.17.001-.252zm2.777-7.425a2.78 2.78 0 00-.209.346c-.168.306-.34.619-.638.7-.306.08-.619-.108-.921-.293a3.938 3.938 0 00-.33-.185c-.01.128-.01.255-.007.383.007.353.017.716-.205.938-.221.222-.584.215-.937.205a2.917 2.917 0 00-.384.007c.054.114.118.222.185.33.185.302.373.618.293.92-.081.296-.394.47-.7.639a2.78 2.78 0 00-.346.208c.111.078.226.148.347.209.305.168.618.34.699.638.08.306-.108.619-.293.921a3.938 3.938 0 00-.185.33c.128.01.256.01.384.006.353-.006.716-.016.937.205.222.222.216.585.205.938-.006.128-.003.256.007.383a3.17 3.17 0 00.33-.184c.252-.158.514-.316.77-.316.05 0 .1.006.15.02.3.08.471.393.64.699.06.118.13.235.208.346a2.78 2.78 0 00.208-.346c.168-.306.34-.619.639-.7.306-.08.618.108.92.293.108.067.216.128.33.185.01-.128.01-.255.007-.383-.007-.353-.017-.716.205-.938.222-.222.585-.212.938-.205.127.007.255.003.383-.007a3.17 3.17 0 00-.185-.33c-.185-.302-.373-.618-.292-.92.08-.296.393-.47.699-.639a2.78 2.78 0 00.346-.208 2.78 2.78 0 00-.346-.209c-.306-.168-.619-.339-.7-.638-.08-.306.108-.619.293-.921.067-.108.128-.215.185-.33a3.645 3.645 0 00-.383-.006c-.353.006-.716.016-.938-.205-.222-.222-.212-.585-.205-.938a2.917 2.917 0 00-.007-.383 3.17 3.17 0 00-.33.185c-.302.184-.618.373-.92.292-.3-.08-.47-.393-.639-.7a3.211 3.211 0 00-.208-.342zm1.828 1.849a.336.336 0 01.057.47l-3.25 4.152a.32.32 0 01-.262.13.337.337 0 01-.266-.54l3.25-4.155a.336.336 0 01.471-.057zm-.712 2.679c.598 0 .968.37.968.968s-.37.968-.968.968c-.595 0-.968-.37-.968-.968 0-.599.37-.968.968-.968zm0 .675c-.229 0-.296.068-.296.296 0 .229.067.296.296.296.228 0 .295-.067.295-.296 0-.228-.067-.296-.295-.296zm-2.232-3.29c.598 0 .968.37.968.968s-.373.968-.968.968-.968-.37-.968-.968c0-.599.37-.968.968-.968zm0 .675c-.229 0-.296.067-.296.296 0 .229.067.296.296.296.228 0 .295-.067.295-.296 0-.229-.07-.296-.295-.296zM9.899 5.923c-1.899 0-3.358.474-4.33 1.411-1.008.972-1.519 2.464-1.519 4.437v.961l.584.076a44.05 44.05 0 005.265.308c1.957.003 3.91-.125 5.85-.381l-.001-.964c0-1.973-.511-3.465-1.52-4.437-.974-.937-2.43-1.411-4.329-1.411zm0 1.67c.185 0 .336.152.336.336v3.553a.335.335 0 01-.336.336.337.337 0 01-.336-.336V7.93c0-.184.151-.336.336-.336z" fill="#5CB615" fill-rule="nonzero"/></svg>
